assets/1. 1-F/Flashlight/Color/Flashlight-color.svg

<svg width="100%" height="100%" viewBox="0 0 32 32" fill="none" xmlns="http://www.w3.org/2000/svg">
<path d="M15.7667 16.1184C12.764 19.1212 9.28604 20.5116 7.99853 19.2241C6.71102 17.9366 7.47315 15.0893 10.9335 11.6289C14.5122 8.05023 17.194 7.32582 18.4816 8.61333C19.7691 9.90084 18.7694 13.1157 15.7667 16.1184Z" fill="url(#paint0_radial_18_20541)"/>
<path d="M8.16907 19.004L18.4503 8.72272L19.4972 9.76959C22.3363 12.6087 22.3363 17.2118 19.4972 20.0508C16.6581 22.8899 12.055 22.8899 9.21594 20.0508L8.16907 19.004Z" fill="url(#paint1_radial_18_20541)"/>
<path d="M8.16907 19.004L18.4503 8.72272L19.4972 9.76959C22.3363 12.6087 22.3363 17.2118 19.4972 20.0508C16.6581 22.8899 12.055 22.8899 9.21594 20.0508L8.16907 19.004Z" fill="url(#paint2_radial_18_20541)"/>
<g filter="url(#filter0_i_18_20541)">
<path d="M15.5891 21.9588L15.4855 22.0938C15.5744 22.0921 15.7664 22.1158 15.9109 22.2146L22.6495 28.9532C24.2568 30.5604 26.8626 30.5604 28.4698 28.9532C30.0771 27.3459 30.0771 24.7401 28.4698 23.1329L21.6694 16.3324C21.5674 16.2337 21.5499 16.0876 21.5479 16L15.5891 21.9588Z" fill="url(#paint3_linear_18_20541)"/>
</g>
<path d="M15.5891 21.9588L15.4855 22.0938C15.5744 22.0921 15.7664 22.1158 15.9109 22.2146L22.6495 28.9532C24.2568 30.5604 26.8626 30.5604 28.4698 28.9532C30.0771 27.3459 30.0771 24.7401 28.4698 23.1329L21.6694 16.3324C21.5674 16.2337 21.5499 16.0876 21.5479 16L15.5891 21.9588Z" fill="url(#paint4_radial_18_20541)"/>
<path d="M15.5891 21.9588L15.4855 22.0938C15.5744 22.0921 15.7664 22.1158 15.9109 22.2146L22.6495 28.9532C24.2568 30.5604 26.8626 30.5604 28.4698 28.9532C30.0771 27.3459 30.0771 24.7401 28.4698 23.1329L21.6694 16.3324C21.5674 16.2337 21.5499 16.0876 21.5479 16L15.5891 21.9588Z" fill="url(#paint5_linear_18_20541)"/>
<path d="M15.5891 21.9588L15.4855 22.0938C15.5744 22.0921 15.7664 22.1158 15.9109 22.2146L22.6495 28.9532C24.2568 30.5604 26.8626 30.5604 28.4698 28.9532C30.0771 27.3459 30.0771 24.7401 28.4698 23.1329L21.6694 16.3324C21.5674 16.2337 21.5499 16.0876 21.5479 16L15.5891 21.9588Z" fill="url(#paint6_linear_18_20541)"/>
<g filter="url(#filter1_dii_18_20541)">
<rect x="19.6089" y="19.0151" width="3.32682" height="1.66609" rx="0.833047" transform="rotate(44.9791 19.6089 19.0151)" fill="#EEE6F6"/>
</g>
<rect x="12.9091" y="2.33209" width="1.58034" height="5.57812" rx="0.790169" fill="url(#paint7_linear_18_20541)"/>
<rect x="7.32031" y="13.4979" width="1.58034" height="5.57812" rx="0.790169" transform="rotate(90 7.32031 13.4979)" fill="url(#paint8_linear_18_20541)"/>
<g filter="url(#filter2_i_18_20541)">
<path d="M7.2254 19.0915C6.87392 18.7401 6.87392 18.1702 7.2254 17.8188L17.2182 7.82592C17.5697 7.47445 18.1395 7.47445 18.491 7.82592L19.3042 8.63907C19.6556 8.99054 19.6556 9.56039 19.3042 9.91186L9.31133 19.9047C8.95986 20.2562 8.39001 20.2562 8.03854 19.9047L7.2254 19.0915Z" fill="url(#paint9_linear_18_20541)"/>
</g>
<rect x="9.62537" y="8.72272" width="1.58034" height="5.95325" rx="0.790169" transform="rotate(135 9.62537 8.72272)" fill="url(#paint10_linear_18_20541)"/>
<g filter="url(#filter3_f_18_20541)">
<rect x="17.8425" y="8.00238" width="1.8397" height="7.05118" transform="rotate(45 17.8425 8.00238)" fill="url(#paint11_linear_18_20541)"/>
</g>
<g filter="url(#filter4_f_18_20541)">
<rect x="13.6992" y="2.73053" width="0.563599" height="4.44613" rx="0.281799" fill="url(#paint12_linear_18_20541)"/>
</g>
<g filter="url(#filter5_f_18_20541)">
<rect x="2.30823" y="14.2892" width="0.563599" height="4.44613" rx="0.281799" transform="rotate(-90 2.30823 14.2892)" fill="url(#paint13_linear_18_20541)"/>
</g>
<g filter="url(#filter6_f_18_20541)">
<rect x="5.19067" y="5.35211" width="0.563599" height="4.75464" rx="0.281799" transform="rotate(-45 5.19067 5.35211)" fill="url(#paint14_linear_18_20541)"/>
</g>
<defs>
<filter id="filter0_i_18_20541" x="15.3355" y="16" width="14.3398" height="14.3086" filterUnits="userSpaceOnUse" color-interpolation-filters="sRGB">
<feFlood flood-opacity="0" result="BackgroundImageFix"/>
<feBlend mode="normal" in="SourceGraphic" in2="BackgroundImageFix" result="shape"/>
<feColorMatrix in="SourceAlpha" type="matrix" values="0 0 0 0 0 0 0 0 0 0 0 0 0 0 0 0 0 0 127 0" result="hardAlpha"/>
<feOffset dx="-0.15" dy="0.15"/>
<feGaussianBlur stdDeviation="0.25"/>
<feComposite in2="hardAlpha" operator="arithmetic" k2="-1" k3="1"/>
<feColorMatrix type="matrix" values="0 0 0 0 0.878431 0 0 0 0 0.878431 0 0 0 0 0.878431 0 0 0 1 0"/>
<feBlend mode="normal" in2="shape" result="effect1_innerShadow_18_20541"/>
</filter>
<filter id="filter1_dii_18_20541" x="18.1762" y="19.1102" width="3.84082" height="3.84003" filterUnits="userSpaceOnUse" color-interpolation-filters="sRGB">
<feFlood flood-opacity="0" result="BackgroundImageFix"/>
<feColorMatrix in="SourceAlpha" type="matrix" values="0 0 0 0 0 0 0 0 0 0 0 0 0 0 0 0 0 0 127 0" result="hardAlpha"/>
<feOffset dx="-0.1" dy="0.25"/>
<feGaussianBlur stdDeviation="0.25"/>
<feComposite in2="hardAlpha" operator="out"/>
<feColorMatrix type="matrix" values="0 0 0 0 0.72549 0 0 0 0 0.686275 0 0 0 0 0.768627 0 0 0 1 0"/>
<feBlend mode="normal" in2="BackgroundImageFix" result="effect1_dropShadow_18_20541"/>
<feBlend mode="normal" in="SourceGraphic" in2="effect1_dropShadow_18_20541" result="shape"/>
<feColorMatrix in="SourceAlpha" type="matrix" values="0 0 0 0 0 0 0 0 0 0 0 0 0 0 0 0 0 0 127 0" result="hardAlpha"/>
<feOffset/>
<feGaussianBlur stdDeviation="0.125"/>
<feComposite in2="hardAlpha" operator="arithmetic" k2="-1" k3="1"/>
<feColorMatrix type="matrix" values="0 0 0 0 0.854902 0 0 0 0 0.815686 0 0 0 0 0.894118 0 0 0 1 0"/>
<feBlend mode="normal" in2="shape" result="effect2_innerShadow_18_20541"/>
<feColorMatrix in="SourceAlpha" type="matrix" values="0 0 0 0 0 0 0 0 0 0 0 0 0 0 0 0 0 0 127 0" result="hardAlpha"/>
<feOffset dx="-0.1" dy="0.1"/>
<feGaussianBlur stdDeviation="0.075"/>
<feComposite in2="hardAlpha" operator="arithmetic" k2="-1" k3="1"/>
<feColorMatrix type="matrix" values="0 0 0 0 0.980392 0 0 0 0 0.956863 0 0 0 0 1 0 0 0 1 0"/>
<feBlend mode="normal" in2="effect2_innerShadow_18_20541" result="effect3_innerShadow_18_20541"/>
</filter>
<filter id="filter2_i_18_20541" x="6.96179" y="7.56232" width="12.606" height="12.606" filterUnits="userSpaceOnUse" color-interpolation-filters="sRGB">
<feFlood flood-opacity="0" result="BackgroundImageFix"/>
<feBlend mode="normal" in="SourceGraphic" in2="BackgroundImageFix" result="shape"/>
<feColorMatrix in="SourceAlpha" type="matrix" values="0 0 0 0 0 0 0 0 0 0 0 0 0 0 0 0 0 0 127 0" result="hardAlpha"/>
<feOffset/>
<feGaussianBlur stdDeviation="0.25"/>
<feComposite in2="hardAlpha" operator="arithmetic" k2="-1" k3="1"/>
<feColorMatrix type="matrix" values="0 0 0 0 0.388235 0 0 0 0 0.345098 0 0 0 0 0.423529 0 0 0 1 0"/>
<feBlend mode="normal" in2="shape" result="effect1_innerShadow_18_20541"/>
</filter>
<filter id="filter3_f_18_20541" x="12.5566" y="7.70238" width="6.88687" height="6.8868" filterUnits="userSpaceOnUse" color-interpolation-filters="sRGB">
<feFlood flood-opacity="0" result="BackgroundImageFix"/>
<feBlend mode="normal" in="SourceGraphic" in2="BackgroundImageFix" result="shape"/>
<feGaussianBlur stdDeviation="0.15" result="effect1_foregroundBlur_18_20541"/>
</filter>
<filter id="filter4_f_18_20541" x="13.2992" y="2.33053" width="1.3636" height="5.24611" filterUnits="userSpaceOnUse" color-interpolation-filters="sRGB">
<feFlood flood-opacity="0" result="BackgroundImageFix"/>
<feBlend mode="normal" in="SourceGraphic" in2="BackgroundImageFix" result="shape"/>
<feGaussianBlur stdDeviation="0.2" result="effect1_foregroundBlur_18_20541"/>
</filter>
<filter id="filter5_f_18_20541" x="1.90823" y="13.3256" width="5.24617" height="1.3636" filterUnits="userSpaceOnUse" color-interpolation-filters="sRGB">
<feFlood flood-opacity="0" result="BackgroundImageFix"/>
<feBlend mode="normal" in="SourceGraphic" in2="BackgroundImageFix" result="shape"/>
<feGaussianBlur stdDeviation="0.2" result="effect1_foregroundBlur_18_20541"/>
</filter>
<filter id="filter6_f_18_20541" x="4.80737" y="4.57031" width="4.5271" height="4.5271" filterUnits="userSpaceOnUse" color-interpolation-filters="sRGB">
<feFlood flood-opacity="0" result="BackgroundImageFix"/>
<feBlend mode="normal" in="SourceGraphic" in2="BackgroundImageFix" result="shape"/>
<feGaussianBlur stdDeviation="0.25" result="effect1_foregroundBlur_18_20541"/>
</filter>
<radialGradient id="paint0_radial_18_20541" cx="0" cy="0" r="1" gradientUnits="userSpaceOnUse" gradientTransform="translate(14.5441 10.0977) rotate(135) scale(7.6014 1.54181)">
<stop stop-color="#FFC44B"/>
<stop offset="1" stop-color="#E9B12F"/>
</radialGradient>
<radialGradient id="paint1_radial_18_20541" cx="0" cy="0" r="1" gradientUnits="userSpaceOnUse" gradientTransform="translate(16.9503 12.2852) rotate(45) scale(10.8497 9.21449)">
<stop offset="0.252546" stop-color="#E7E4E9"/>
<stop offset="1" stop-color="#B8A9C7"/>
</radialGradient>
<radialGradient id="paint2_radial_18_20541" cx="0" cy="0" r="1" gradientUnits="userSpaceOnUse" gradientTransform="translate(11.3253 16.4727) rotate(-8.45499) scale(10.4144)">
<stop offset="0.847401" stop-color="#DEDDDF" stop-opacity="0"/>
<stop offset="1" stop-color="#DEDDDF"/>
</radialGradient>
<linearGradient id="paint3_linear_18_20541" x1="25.0128" y1="21.3477" x2="20.1691" y2="26.0977" gradientUnits="userSpaceOnUse">
<stop stop-color="#E7E6E9"/>
<stop offset="0.8983" stop-color="#B6A9C3"/>
</linearGradient>
<radialGradient id="paint4_radial_18_20541" cx="0" cy="0" r="1" gradientUnits="userSpaceOnUse" gradientTransform="translate(20.4503 16.9727) rotate(45.9094) scale(0.696146 2.49525)">
<stop offset="0.253048" stop-color="#E6E2E9"/>
<stop offset="1" stop-color="#E6E2E9" stop-opacity="0"/>
</radialGradient>
<linearGradient id="paint5_linear_18_20541" x1="28.6066" y1="29.254" x2="25.7003" y2="26.504" gradientUnits="userSpaceOnUse">
<stop stop-color="#BCB1C8"/>
<stop offset="1" stop-color="#CAC1D4" stop-opacity="0"/>
</linearGradient>
<linearGradient id="paint6_linear_18_20541" x1="15.7941" y1="21.4727" x2="16.6066" y2="22.0352" gradientUnits="userSpaceOnUse">
<stop offset="0.253631" stop-color="#B8AAC3"/>
<stop offset="1" stop-color="#BBACC9" stop-opacity="0"/>
</linearGradient>
<linearGradient id="paint7_linear_18_20541" x1="13.6992" y1="2.33209" x2="13.6992" y2="7.91022" gradientUnits="userSpaceOnUse">
<stop stop-color="#FFC327"/>
<stop offset="1" stop-color="#FEB813"/>
</linearGradient>
<linearGradient id="paint8_linear_18_20541" x1="8.11048" y1="13.4979" x2="8.11048" y2="19.076" gradientUnits="userSpaceOnUse">
<stop stop-color="#FFC327"/>
<stop offset="1" stop-color="#FEB813"/>
</linearGradient>
<linearGradient id="paint9_linear_18_20541" x1="18.6066" y1="8.22273" x2="12.2941" y2="14.9727" gradientUnits="userSpaceOnUse">
<stop stop-color="#584965"/>
<stop offset="1" stop-color="#3E3448"/>
</linearGradient>
<linearGradient id="paint10_linear_18_20541" x1="10.4155" y1="8.72272" x2="10.4155" y2="14.676" gradientUnits="userSpaceOnUse">
<stop stop-color="#FFC327"/>
<stop offset="1" stop-color="#FEB813"/>
</linearGradient>
<linearGradient id="paint11_linear_18_20541" x1="18.7596" y1="7.3858" x2="18.7636" y2="15.0536" gradientUnits="userSpaceOnUse">
<stop stop-color="#6B6374" stop-opacity="0"/>
<stop offset="0.420778" stop-color="#6B6374"/>
<stop offset="0.603887" stop-color="#6B6374"/>
<stop offset="1" stop-color="#6B6374" stop-opacity="0"/>
</linearGradient>
<linearGradient id="paint12_linear_18_20541" x1="13.981" y1="2.73053" x2="13.981" y2="8.89063" gradientUnits="userSpaceOnUse">
<stop stop-color="#FFD956"/>
<stop offset="1" stop-color="#FFD956" stop-opacity="0"/>
</linearGradient>
<linearGradient id="paint13_linear_18_20541" x1="2.59003" y1="15.2438" x2="2.59003" y2="19.3063" gradientUnits="userSpaceOnUse">
<stop stop-color="#FFC538"/>
<stop offset="1" stop-color="#FFC538" stop-opacity="0"/>
</linearGradient>
<linearGradient id="paint14_linear_18_20541" x1="5.47247" y1="5.35211" x2="5.47247" y2="11.9397" gradientUnits="userSpaceOnUse">
<stop stop-color="#FFD956"/>
<stop offset="1" stop-color="#FFD956" stop-opacity="0"/>
</linearGradient>
</defs>
</svg>

<svg width="100%" height="100%" viewBox="0 0 32 32" xmlns="http://www.w3.org/2000/svg"><path fill="url(#a)" d="M15.767 16.118c-3.003 3.003-6.481 4.394-7.768 3.106-1.288-1.287-.526-4.135 2.935-7.595 3.578-3.579 6.26-4.303 7.548-3.016 1.287 1.288.287 4.503-2.715 7.505"/><path fill="url(#b)" d="M8.17 19.004 18.45 8.723l1.047 1.047A7.27 7.27 0 1 1 9.216 20.05z"/><path fill="url(#c)" d="M8.17 19.004 18.45 8.723l1.047 1.047A7.27 7.27 0 1 1 9.216 20.05z"/><g filter="url(#d)"><path fill="url(#e)" d="m15.59 21.959-.104.135a.8.8 0 0 1 .425.12l6.739 6.74a4.116 4.116 0 0 0 5.82-5.821l-6.8-6.8c-.103-.1-.12-.245-.122-.333z"/></g><path fill="url(#f)" d="m15.59 21.959-.104.135a.8.8 0 0 1 .425.12l6.739 6.74a4.116 4.116 0 0 0 5.82-5.821l-6.8-6.8c-.103-.1-.12-.245-.122-.333z"/><path fill="url(#g)" d="m15.59 21.959-.104.135a.8.8 0 0 1 .425.12l6.739 6.74a4.116 4.116 0 0 0 5.82-5.821l-6.8-6.8c-.103-.1-.12-.245-.122-.333z"/><path fill="url(#h)" d="m15.59 21.959-.104.135a.8.8 0 0 1 .425.12l6.739 6.74a4.116 4.116 0 0 0 5.82-5.821l-6.8-6.8c-.103-.1-.12-.245-.122-.333z"/><g filter="url(#i)"><rect width="3.327" height="1.666" x="19.609" y="19.015" fill="#EEE6F6" rx=".833" transform="rotate(44.98 19.609 19.015)"/></g><rect width="1.58" height="5.578" x="12.909" y="2.332" fill="url(#j)" rx=".79"/><rect width="1.58" height="5.578" x="7.32" y="13.498" fill="url(#k)" rx=".79" transform="rotate(90 7.32 13.498)"/><g filter="url(#l)"><path fill="url(#m)" d="M7.225 19.092a.9.9 0 0 1 0-1.273l9.993-9.993a.9.9 0 0 1 1.273 0l.813.813a.9.9 0 0 1 0 1.273l-9.993 9.993a.9.9 0 0 1-1.272 0z"/></g><rect width="1.58" height="5.953" x="9.625" y="8.723" fill="url(#n)" rx=".79" transform="rotate(135 9.625 8.723)"/><g filter="url(#o)"><path fill="url(#p)" d="M17.843 8.002h1.84v7.051h-1.84z" transform="rotate(45 17.843 8.002)"/></g><g filter="url(#q)"><rect width=".564" height="4.446" x="13.699" y="2.731" fill="url(#r)" rx=".282"/></g><g filter="url(#s)"><rect width=".564" height="4.446" x="2.308" y="14.289" fill="url(#t)" rx=".282" transform="rotate(-90 2.308 14.29)"/></g><g filter="url(#u)"><rect width=".564" height="4.755" x="5.191" y="5.352" fill="url(#v)" rx=".282" transform="rotate(-45 5.19 5.352)"/></g><defs><linearGradient id="e" x1="25.013" x2="20.169" y1="21.348" y2="26.098" gradientUnits="userSpaceOnUse"><stop stop-color="#E7E6E9"/><stop offset=".898" stop-color="#B6A9C3"/></linearGradient><linearGradient id="g" x1="28.607" x2="25.7" y1="29.254" y2="26.504" gradientUnits="userSpaceOnUse"><stop stop-color="#BCB1C8"/><stop offset="1" stop-color="#CAC1D4" stop-opacity="0"/></linearGradient><linearGradient id="h" x1="15.794" x2="16.607" y1="21.473" y2="22.035" gradientUnits="userSpaceOnUse"><stop offset=".254" stop-color="#B8AAC3"/><stop offset="1" stop-color="#BBACC9" stop-opacity="0"/></linearGradient><linearGradient id="j" x1="13.699" x2="13.699" y1="2.332" y2="7.91" gradientUnits="userSpaceOnUse"><stop stop-color="#FFC327"/><stop offset="1" stop-color="#FEB813"/></linearGradient><linearGradient id="k" x1="8.11" x2="8.11" y1="13.498" y2="19.076" gradientUnits="userSpaceOnUse"><stop stop-color="#FFC327"/><stop offset="1" stop-color="#FEB813"/></linearGradient><linearGradient id="m" x1="18.607" x2="12.294" y1="8.223" y2="14.973" gradientUnits="userSpaceOnUse"><stop stop-color="#584965"/><stop offset="1" stop-color="#3E3448"/></linearGradient><linearGradient id="n" x1="10.415" x2="10.415" y1="8.723" y2="14.676" gradientUnits="userSpaceOnUse"><stop stop-color="#FFC327"/><stop offset="1" stop-color="#FEB813"/></linearGradient><linearGradient id="p" x1="18.76" x2="18.764" y1="7.386" y2="15.054" gradientUnits="userSpaceOnUse"><stop stop-color="#6B6374" stop-opacity="0"/><stop offset=".421" stop-color="#6B6374"/><stop offset=".604" stop-color="#6B6374"/><stop offset="1" stop-color="#6B6374" stop-opacity="0"/></linearGradient><linearGradient id="r" x1="13.981" x2="13.981" y1="2.731" y2="8.891" gradientUnits="userSpaceOnUse"><stop stop-color="#FFD956"/><stop offset="1" stop-color="#FFD956" stop-opacity="0"/></linearGradient><linearGradient id="t" x1="2.59" x2="2.59" y1="15.244" y2="19.306" gradientUnits="userSpaceOnUse"><stop stop-color="#FFC538"/><stop offset="1" stop-color="#FFC538" stop-opacity="0"/></linearGradient><linearGradient id="v" x1="5.472" x2="5.472" y1="5.352" y2="11.94" gradientUnits="userSpaceOnUse"><stop stop-color="#FFD956"/><stop offset="1" stop-color="#FFD956" stop-opacity="0"/></linearGradient><filter id="d" width="14.34" height="14.309" x="15.335" y="16" color-interpolation-filters="sRGB" filterUnits="userSpaceOnUse"><feFlood flood-opacity="0" result="BackgroundImageFix"/><feBlend in="SourceGraphic" in2="BackgroundImageFix" result="shape"/><feColorMatrix in="SourceAlpha" result="hardAlpha" values="0 0 0 0 0 0 0 0 0 0 0 0 0 0 0 0 0 0 127 0"/><feOffset dx="-.15" dy=".15"/><feGaussianBlur stdDeviation=".25"/><feComposite in2="hardAlpha" k2="-1" k3="1" operator="arithmetic"/><feColorMatrix values="0 0 0 0 0.878431 0 0 0 0 0.878431 0 0 0 0 0.878431 0 0 0 1 0"/><feBlend in2="shape" result="effect1_innerShadow_18_20541"/></filter><filter id="i" width="3.841" height="3.84" x="18.176" y="19.11" color-interpolation-filters="sRGB" filterUnits="userSpaceOnUse"><feFlood flood-opacity="0" result="BackgroundImageFix"/><feColorMatrix in="SourceAlpha" result="hardAlpha" values="0 0 0 0 0 0 0 0 0 0 0 0 0 0 0 0 0 0 127 0"/><feOffset dx="-.1" dy=".25"/><feGaussianBlur stdDeviation=".25"/><feComposite in2="hardAlpha" operator="out"/><feColorMatrix values="0 0 0 0 0.72549 0 0 0 0 0.686275 0 0 0 0 0.768627 0 0 0 1 0"/><feBlend in2="BackgroundImageFix" result="effect1_dropShadow_18_20541"/><feBlend in="SourceGraphic" in2="effect1_dropShadow_18_20541" result="shape"/><feColorMatrix in="SourceAlpha" result="hardAlpha" values="0 0 0 0 0 0 0 0 0 0 0 0 0 0 0 0 0 0 127 0"/><feOffset/><feGaussianBlur stdDeviation=".125"/><feComposite in2="hardAlpha" k2="-1" k3="1" operator="arithmetic"/><feColorMatrix values="0 0 0 0 0.854902 0 0 0 0 0.815686 0 0 0 0 0.894118 0 0 0 1 0"/><feBlend in2="shape" result="effect2_innerShadow_18_20541"/><feColorMatrix in="SourceAlpha" result="hardAlpha" values="0 0 0 0 0 0 0 0 0 0 0 0 0 0 0 0 0 0 127 0"/><feOffset dx="-.1" dy=".1"/><feGaussianBlur stdDeviation=".075"/><feComposite in2="hardAlpha" k2="-1" k3="1" operator="arithmetic"/><feColorMatrix values="0 0 0 0 0.980392 0 0 0 0 0.956863 0 0 0 0 1 0 0 0 1 0"/><feBlend in2="effect2_innerShadow_18_20541" result="effect3_innerShadow_18_20541"/></filter><filter id="l" width="12.606" height="12.606" x="6.962" y="7.562" color-interpolation-filters="sRGB" filterUnits="userSpaceOnUse"><feFlood flood-opacity="0" result="BackgroundImageFix"/><feBlend in="SourceGraphic" in2="BackgroundImageFix" result="shape"/><feColorMatrix in="SourceAlpha" result="hardAlpha" values="0 0 0 0 0 0 0 0 0 0 0 0 0 0 0 0 0 0 127 0"/><feOffset/><feGaussianBlur stdDeviation=".25"/><feComposite in2="hardAlpha" k2="-1" k3="1" operator="arithmetic"/><feColorMatrix values="0 0 0 0 0.388235 0 0 0 0 0.345098 0 0 0 0 0.423529 0 0 0 1 0"/><feBlend in2="shape" result="effect1_innerShadow_18_20541"/></filter><filter id="o" width="6.887" height="6.887" x="12.557" y="7.702" color-interpolation-filters="sRGB" filterUnits="userSpaceOnUse"><feFlood flood-opacity="0" result="BackgroundImageFix"/><feBlend in="SourceGraphic" in2="BackgroundImageFix" result="shape"/><feGaussianBlur result="effect1_foregroundBlur_18_20541" stdDeviation=".15"/></filter><filter id="q" width="1.364" height="5.246" x="13.299" y="2.331" color-interpolation-filters="sRGB" filterUnits="userSpaceOnUse"><feFlood flood-opacity="0" result="BackgroundImageFix"/><feBlend in="SourceGraphic" in2="BackgroundImageFix" result="shape"/><feGaussianBlur result="effect1_foregroundBlur_18_20541" stdDeviation=".2"/></filter><filter id="s" width="5.246" height="1.364" x="1.908" y="13.326" color-interpolation-filters="sRGB" filterUnits="userSpaceOnUse"><feFlood flood-opacity="0" result="BackgroundImageFix"/><feBlend in="SourceGraphic" in2="BackgroundImageFix" result="shape"/><feGaussianBlur result="effect1_foregroundBlur_18_20541" stdDeviation=".2"/></filter><filter id="u" width="4.527" height="4.527" x="4.807" y="4.57" color-interpolation-filters="sRGB" filterUnits="userSpaceOnUse"><feFlood flood-opacity="0" result="BackgroundImageFix"/><feBlend in="SourceGraphic" in2="BackgroundImageFix" result="shape"/><feGaussianBlur result="effect1_foregroundBlur_18_20541" stdDeviation=".25"/></filter><radialGradient id="a" cx="0" cy="0" r="1" gradientTransform="rotate(135 5.18 8.061)scale(7.6014 1.54181)" gradientUnits="userSpaceOnUse"><stop stop-color="#FFC44B"/><stop offset="1" stop-color="#E9B12F"/></radialGradient><radialGradient id="b" cx="0" cy="0" r="1" gradientTransform="rotate(45 -6.354 26.603)scale(10.8497 9.21449)" gradientUnits="userSpaceOnUse"><stop offset=".253" stop-color="#E7E4E9"/><stop offset="1" stop-color="#B8A9C7"/></radialGradient><radialGradient id="c" cx="0" cy="0" r="1" gradientTransform="rotate(-8.455 117.088 -68.37)scale(10.4144)" gradientUnits="userSpaceOnUse"><stop offset=".847" stop-color="#DEDDDF" stop-opacity="0"/><stop offset="1" stop-color="#DEDDDF"/></radialGradient><radialGradient id="f" cx="0" cy="0" r="1" gradientTransform="matrix(.48437 .5 -1.79219 1.73618 20.45 16.973)" gradientUnits="userSpaceOnUse"><stop offset=".253" stop-color="#E6E2E9"/><stop offset="1" stop-color="#E6E2E9" stop-opacity="0"/></radialGradient></defs></svg>
